Apromore-Custom-Plugins/Account-Portal-Plugin/src/main/resources/active-plugins-icon.svg

<?xml version="1.0" encoding="UTF-8" standalone="no"?>
<svg
   xmlns:dc="http://purl.org/dc/elements/1.1/"
   xmlns:cc="http://creativecommons.org/ns#"
   xmlns:rdf="http://www.w3.org/1999/02/22-rdf-syntax-ns#"
   xmlns:svg="http://www.w3.org/2000/svg"
   xmlns="http://www.w3.org/2000/svg"
   xmlns:sodipodi="http://sodipodi.sourceforge.net/DTD/sodipodi-0.dtd"
   xmlns:inkscape="http://www.inkscape.org/namespaces/inkscape"
   width="22"
   height="22"
   overflow="hidden"
   version="1.1"
   id="svg13"
   sodipodi:docname="puzz.svg"
   style="overflow:hidden"
   inkscape:version="0.92.4 (5da689c313, 2019-01-14)">
  <metadata
     id="metadata17">
    <rdf:RDF>
      <cc:Work
         rdf:about="">
        <dc:format>image/svg+xml</dc:format>
        <dc:type
           rdf:resource="http://purl.org/dc/dcmitype/StillImage" />
      </cc:Work>
    </rdf:RDF>
  </metadata>
  <sodipodi:namedview
     pagecolor="#ffffff"
     bordercolor="#666666"
     borderopacity="1"
     objecttolerance="10"
     gridtolerance="10"
     guidetolerance="10"
     inkscape:pageopacity="0"
     inkscape:pageshadow="2"
     inkscape:window-width="3840"
     inkscape:window-height="1973"
     id="namedview15"
     showgrid="false"
     inkscape:zoom="0.79461279"
     inkscape:cx="148"
     inkscape:cy="147.5"
     inkscape:window-x="-18"
     inkscape:window-y="-18"
     inkscape:window-maximized="1"
     inkscape:current-layer="svg13" />
  <defs
     id="defs5">
    <clipPath
       id="clip0">
      <path
         d="m 1340,143 h 298 v 297 h -298 z"
         id="path2"
         inkscape:connector-curvature="0"
         style="clip-rule:evenodd;fill-rule:evenodd" />
    </clipPath>
  </defs>
  <g
     clip-path="url(#clip0)"
     transform="matrix(0.07457627,0,0,0.07457627,-100.00678,-10.738983)"
     id="g11">
    <rect
       x="1341"
       y="144"
       width="295"
       height="295"
       id="rect7"
       style="fill:#000000;fill-opacity:0" />
    <path
       d="m 1573.57,285.714 h -15.86 v -42.285 c 0,-11.629 -9.51,-21.143 -21.14,-21.143 h -42.28 v -15.857 c 0,-14.589 -11.84,-26.429 -26.43,-26.429 -14.59,0 -26.43,11.84 -26.43,26.429 v 15.857 h -42.29 c -11.63,0 -21.03,9.514 -21.03,21.143 V 283.6 h 15.75 c 15.75,0 28.54,12.791 28.54,28.543 0,15.751 -12.79,28.543 -28.54,28.543 H 1378 v 40.171 c 0,11.629 9.51,21.143 21.14,21.143 h 40.17 v -15.857 c 0,-15.752 12.8,-28.543 28.55,-28.543 15.75,0 28.54,12.791 28.54,28.543 V 402 h 40.17 c 11.63,0 21.14,-9.514 21.14,-21.143 v -42.286 h 15.86 c 14.59,0 26.43,-11.84 26.43,-26.428 0,-14.589 -11.84,-26.429 -26.43,-26.429 z"
       id="path9"
       inkscape:connector-curvature="0"
       style="fill:#4d4d4d;fill-rule:evenodd" />
  </g>
</svg>

<svg width="224" height="224" xmlns="http://www.w3.org/2000/svg" xmlns:xlink="http://www.w3.org/1999/xlink" overflow="hidden"><defs><clipPath id="clip0"><path d="M1377 179 1601 179 1601 403 1377 403Z" fill-rule="evenodd" clip-rule="evenodd"/></clipPath></defs><g clip-path="url(#clip0)" transform="translate(-1377 -179)"><path d="M1573.57 285.714 1557.71 285.714 1557.71 243.429C1557.71 231.8 1548.2 222.286 1536.57 222.286L1494.29 222.286 1494.29 206.429C1494.29 191.84 1482.45 180 1467.86 180 1453.27 180 1441.43 191.84 1441.43 206.429L1441.43 222.286 1399.14 222.286C1387.51 222.286 1378.11 231.8 1378.11 243.429L1378.11 283.6 1393.86 283.6C1409.61 283.6 1422.4 296.391 1422.4 312.143 1422.4 327.894 1409.61 340.686 1393.86 340.686L1378 340.686 1378 380.857C1378 392.486 1387.51 402 1399.14 402L1439.31 402 1439.31 386.143C1439.31 370.391 1452.11 357.6 1467.86 357.6 1483.61 357.6 1496.4 370.391 1496.4 386.143L1496.4 402 1536.57 402C1548.2 402 1557.71 392.486 1557.71 380.857L1557.71 338.571 1573.57 338.571C1588.16 338.571 1600 326.731 1600 312.143 1600 297.554 1588.16 285.714 1573.57 285.714Z" fill="#4D4D4D" fill-rule="evenodd"/></g></svg>
